src/24/actions/office-chart-line.svg

<svg xmlns="http://www.w3.org/2000/svg" viewBox="0 0 24 24">
  <defs id="defs3051">
    <style type="text/css" id="current-color-scheme">
      .ColorScheme-Text {
        color:#5d656b;
      }
      </style>
  </defs>
 <path style="fill:currentColor;fill-opacity:1;stroke:none" 
     d="M 5 4 L 5 10 L 5 11 L 5 16 L 5 17 L 5 18 L 4 18 L 4 19 L 5 19 L 5 20 L 6 20 L 6 19 L 19.292969 19 L 20 19 L 20 18.292969 L 20 18 L 19.707031 18 L 18.958984 17.251953 L 18.130859 16.423828 L 16.130859 14.423828 L 16.126953 14.427734 L 16.121094 14.423828 L 13.998047 16.546875 L 12.703125 15.251953 L 11.875 14.423828 L 9.875 12.423828 L 9.8730469 12.423828 L 8 12.423828 L 7 12.423828 L 6 12.423828 L 6 12 L 6 11 L 7 11 L 8 11 L 9.8730469 11 L 9.875 11 L 11.875 9 L 12.703125 8.171875 L 13.998047 6.8769531 L 16.121094 9 L 16.126953 8.9960938 L 16.130859 9 L 18.130859 7 L 18.958984 6.171875 L 20 5.1308594 L 19.292969 4.4238281 L 18.251953 5.4648438 L 17.423828 6.2929688 L 16.126953 7.5898438 L 14 5.4648438 L 13.998047 5.4667969 L 13.996094 5.4648438 L 12.46875 6.9921875 L 6 6.9921875 L 6 6 L 6 4 L 5 4 z M 6 7 L 12.460938 7 L 11.996094 7.4648438 L 11.167969 8.2929688 L 9.4609375 10 L 8 10 L 7 10 L 6 10 L 6 7 z M 6 13.423828 L 7 13.423828 L 8 13.423828 L 9.4609375 13.423828 L 11.167969 15.130859 L 11.996094 15.958984 L 12.460938 16.423828 L 6 16.423828 L 6 16 L 6 13.423828 z M 16.126953 15.833984 L 17.423828 17.130859 L 18.251953 17.958984 L 18.292969 18 L 6 18 L 6 17 L 6 16.431641 L 12.46875 16.431641 L 13.996094 17.958984 L 13.998047 17.957031 L 14 17.958984 L 16.126953 15.833984 z "
     class="ColorScheme-Text"
     />
</svg>

<svg xmlns="http://www.w3.org/2000/svg" viewBox="0 0 24 24"><path d="M5 4v14H4v1h1v1h1v-1h14v-1h-.293l-.748-.748-.828-.828-2-2-.004.004-.006-.004-2.123 2.123-1.295-1.295-.828-.828-2-2H6V11h3.875l2-2 .828-.828 1.295-1.295L16.121 9l.006-.004.004.004 2-2 .828-.828L20 5.13l-.707-.707-1.041 1.04-.828.829-1.297 1.297L14 5.465l-.002.002-.002-.002-1.527 1.527H6V4H5zm1 3h6.46l-.464.465-.828.828L9.461 10H6V7zm0 6.424h3.46l1.708 1.707.828.828.465.465H6v-3zm10.127 2.41l1.297 1.297.828.828.041.041H6v-1.568h6.469l1.527 1.527.002-.002.002.002 2.127-2.125z" fill="currentColor" color="#5d656b"/></svg>
